X:65
T:O Come, All Ye Faithful
%%stretchlast false
M:4/4
L:1/4
K:F clef=C1
"^I"[F,A,CF] [F,A,CF]2 "^iii"[A,C] | "^I"[F,A,CF] "^V¹"[E,G,CG]2 [E,G,C]2 | "^I"[F,CA] "^V¹"[E,G,CG] "^I"[F,CA] | "^IV"[B,,F,DB] "^I²"[C,F,CA]2 "^V"[C,E,CG] | "^vi"[D,F,A,F] [D,F,A,F] "^♭v°¹"[D,F,=B,F] "^V"[C,G,CE] | "^V/V"[G,,G,=B,D] "^V"[C,G,CE] "^I¹"[A,,F,CF] "^V¹"[E,,E,CG] | "^vi7¹"[F,,D,CA] "^V²"[G,,G,CE]2 "^II7"[G,,F,=B,D]3/2 | "^V"[C,E,C]/ [C,E,C]3 | "^iii"[A,C] [A,Cc] [G,A,Dc]/ "^iii7³"[G,A,Ec]/ "^iv"[F,B,FB] | "^I"[G,CFA] "^vii°¹"[G,B,EB] "^iv"[F,B,FB] "^I"[F,CFA] | "^iii²"[E,CA] "^i"[F,G,CG] "^vi"[D,F,DA] "^IVmaj7"[B,,A,DF] | "^v7"[C,B,CG] "^V"[C,G,CE] [C,G,CE]/ "^vi7³"[C,F,CD]/ "^iii²"[E,A,C] | "^I¹"[A,CF] "^I"[G,A,CF] "^iii7³"[G,A,CE] "^I¹"[A,B,CF] | [A,B,CG] [A,CF]2 "^I"[F,A,C] | [F,CA] "^Imaj7³"[E,F,CA] "^V¹"[E,F,CG] "^I"[F,G,CA] | [F,G,CB] [F,CA] "^Imaj7³"[E,F,CA] [E,F,FG] | "^iii7³"[G,CEA] "^iv"[F,CFB] "^iii²"[E,CA] "^v"[D,G,CG]/ "^II²"[D,G,=B,G]/ | "^i"[C,G,CF] "^V7³"[B,,G,CE] "^iii7"[A,,G,CE] "^IV"[B,,F,DF] | "^iv"[C,F,CB] "^I²"[C,F,CA] [C,F,CA] "^V"[C,E,CG]/ "^I"[F,,E,A,G]/ | [F,,E,A,G]/ [F,,F,A,F]/ [F,,F,A,F]3 |]
